static/assets/svg/human/humanClothes/female_shirt6_stickers/female_shirt6_sticker10.svg

<svg class="shirtOverlay" width="86" height="380" viewBox="202.715 584.407 86.593 380.048" preserveAspectRatio="xMidYMax" xmlns="http://www.w3.org/2000/svg"><defs id="svgEditorDefs"><style id="style6">.str5{stroke:#c2c1c1;stroke-width:.3528;stroke-linejoin:bevel}.fil5{fill:#fff}</style><linearGradient id="gradient-0" gradientUnits="userSpaceOnUse" x1="259.663" y1="784.779" x2="259.663" y2="799.681"><stop offset="0" stop-color="#0f2"/><stop offset="1" stop-color="#009914"/></linearGradient><linearGradient id="gradient-1" gradientUnits="userSpaceOnUse" x1="224.983" y1="783.089" x2="224.983" y2="796.683"><stop offset="0" stop-color="#0f2"/><stop offset="1" stop-color="#009914"/></linearGradient><linearGradient id="gradient-2" gradientUnits="userSpaceOnUse" x1="246.073" y1="654.969" x2="246.073" y2="660.452"><stop offset="0" stop-color="#0f2"/><stop offset="1" stop-color="#009914"/></linearGradient><linearGradient id="gradient-3" gradientUnits="userSpaceOnUse" x1="246.056" y1="655.32" x2="246.056" y2="662.609"><stop offset="0" stop-color="#0f2"/><stop offset="1" stop-color="#009914"/></linearGradient></defs><path id="svgEditorBackground" class="clothes" fill="none" d="M202.715 584.431h86.593V700.24h-86.593z"/><path id="rect-1" class="clothes" fill="none" d="M-403.988 499.579h1300v550h-1300z"/><path id="path49" d="M262.698 794.08c1.405 5.409 7.803 4.352 5.726-.74-.068-.161-.561-.938-.617-1.037 3.304 4.738 6.725 1.214 4.407-1.829 2.977 3.418 5.833 4.442 4.466-.536 5.487-2.432-1.741-7.901-6.194-3.496l.223 1.716c-10.928 2.199-12.681 3.162-29.847 2.18l-.143 1.047c-.495 3.887 2.994 6 4.442 2.545.135 3.893 4.241 4.955 5.839 3.483.691-.635.898-1.663.898-1.663 1.374 6.791 6.924 3.201 5.921.908 1.021 2.531 3.462 3.162 4.499 1.936 1.488-1.748.381-3.504.38-4.514z" class="fil5 str5" transform="rotate(5.29 259.66 792.23)" stroke-linejoin="bevel" stroke="#c2c1c1" stroke-width=".495" fill="url(#gradient-0)"/><path id="path49-1" d="M223.208 790.999c-.244 5.489-5.742 4.417-4.886-.752.029-.162.305-.952.335-1.051-1.937 4.808-5.382 1.231-3.975-1.857-1.89 3.469-4.089 4.508-3.804-.544-4.976-2.47-.497-6.048 3.958-1.577l-.879 1.083c8.941.927 15.325.097 26.759.9l.3 1.063c1.075 3.945-1.464 6.089-3.259 2.583.555 3.952-2.678 5.028-4.257 3.534-.684-.645-1.031-1.687-1.031-1.687.019 6.893-5.208 3.248-4.766.922-.416 2.567-2.337 3.208-3.408 1.964-1.536-1.775-.916-3.556-1.088-4.581z" class="fil5 str5" transform="rotate(5.29 224.981 789.887)" stroke-linejoin="bevel" fill-rule="evenodd" stroke="#c2c1c1" stroke-width=".455" fill="url(#gradient-1)"/><path id="path55-1" d="M238.818 659.171c1.582-1.268 5.672.291 9.152.205 3.602-.09 6.572-1.768 6.67.325l2.596.751c1.633-.743.476-2.069-2.26-3.269a7.043 7.043 0 0 1 2.721 1.663c.855-1.952 1.306-3.437-1.618-3.857-1.774-.255-6.17 1.979-9.425 1.914-4.111-.032-8.276-1.99-10.522-1.153-.761.285.625.768-.184 1.295-.677.448-2.37.804-2.118 1.404.26.621 1.105.129 2.087.223.607-.622 1.64-1.164 2.734-1.576-1.964.802-3.07 1.648-3.098 2.649l3.265-.574z" class="fil5 str5" stroke-linejoin="bevel" stroke="#c2c1c1" stroke-width=".512" fill="url(#gradient-2)"/><path id="path55" class="fil5 str5" d="M239.045 656.601c3.218 2.581 15.629 3.586 15.823-.53l2.596-.751c1.632.743.475 2.069-2.261 3.269a7.039 7.039 0 0 0 2.72-1.662c1.338 3.05-1.299 5.501-10.338 5.681-5.505.044-9.659-1.163-12.854-3.245-.677-.449-1.042-.709-.789-1.309.26-.622 1.22-.86 2.203-.954.607.621 1.64 1.163 2.733 1.576-1.963-.802-3.069-1.649-3.098-2.649l3.265.574z" stroke-linejoin="bevel" stroke="#c2c1c1" stroke-width=".512" fill="url(#gradient-3)"/></svg>

<svg class="shirtOverlay" width="86" height="380" viewBox="202.715 584.407 86.5933 380.048" preserveAspectRatio="xMidYMax" xmlns="http://www.w3.org/2000/svg">
  <defs id="svgEditorDefs">
    <path id="svgEditorClosePathDefs" fill="black" style="stroke-width: 0px; stroke: none;" class="clothes"/>
    <style id="style6" type="text/css">
    .str9 {stroke:#1F1A17;stroke-width:0.1764}
    .str11 {stroke:#C2C1C1;stroke-width:0.1764}
    .str10 {stroke:#C2C1C1;stroke-width:0.1764;stroke-linejoin:bevel}
    .str6 {stroke:#EF9A48;stroke-width:0.1764}
    .str3 {stroke:#007CC3;stroke-width:0.3528}
    .str15 {stroke:#00923F;stroke-width:0.3528}
    .str12 {stroke:#1F1A17;stroke-width:0.3528}
    .str2 {stroke:#28166F;stroke-width:0.3528}
    .str4 {stroke:#AAA9A9;stroke-width:0.3528}
    .str0 {stroke:#C2C1C1;stroke-width:0.3528}
    .str5 {stroke:#C2C1C1;stroke-width:0.3528;stroke-linejoin:bevel}
    .str7 {stroke:#DA251D;stroke-width:0.3528;stroke-linejoin:bevel}
    .str13 {stroke:#E77817;stroke-width:0.3528;stroke-linejoin:bevel}
    .str1 {stroke:#EF9A48;stroke-width:0.3528}
    .str14 {stroke:#8B2829;stroke-width:0.3528}
    .str16 {stroke:#8B2829;stroke-width:0.3528;stroke-linejoin:bevel}
    .str8 {stroke:#8E292A;stroke-width:0.3528}
    .fil6 {fill:none}
    .fil4 {fill:#0093DD}
    .fil9 {fill:#1F1A17}
    .fil10 {fill:#3BB3C2}
    .fil2 {fill:#6D609E}
    .fil11 {fill:#72706F}
    .fil0 {fill:#75C5F0}
    .fil12 {fill:#84C225}
    .fil8 {fill:#DA251D}
    .fil3 {fill:#DEDEDD}
    .fil7 {fill:#E77817}
    .fil5 {fill:white}
    .fil13 {fill:#8D2929}
    .fil1 {fill:#F0C4A6}
  </style>
    <linearGradient id="gradient-0" gradientUnits="userSpaceOnUse" x1="259.663" y1="784.779" x2="259.663" y2="799.681">
      <stop offset="0" style="stop-color: rgba(0, 255, 34, 1)"/>
      <stop offset="1" style="stop-color: rgba(0, 153, 20, 1)"/>
    </linearGradient>
    <linearGradient id="gradient-1" gradientUnits="userSpaceOnUse" x1="224.983" y1="783.089" x2="224.983" y2="796.683">
      <stop offset="0" style="stop-color: rgba(0, 255, 34, 1)"/>
      <stop offset="1" style="stop-color: rgba(0, 153, 20, 1)"/>
    </linearGradient>
    <linearGradient id="gradient-2" gradientUnits="userSpaceOnUse" x1="246.073" y1="654.969" x2="246.073" y2="660.452">
      <stop offset="0" style="stop-color: rgba(0, 255, 34, 1)"/>
      <stop offset="1" style="stop-color: rgba(0, 153, 20, 1)"/>
    </linearGradient>
    <linearGradient id="gradient-3" gradientUnits="userSpaceOnUse" x1="246.056" y1="655.32" x2="246.056" y2="662.609">
      <stop offset="0" style="stop-color: rgba(0, 255, 34, 1)"/>
      <stop offset="1" style="stop-color: rgba(0, 153, 20, 1)"/>
    </linearGradient>
  </defs>
  <rect id="svgEditorBackground" x="202.71499633789062" y="584.4310302734375" width="86.59329986572266" height="115.80899810791016" style="fill: none; stroke: none;" class="clothes"/>
  <rect id="rect-1" x="-403.988" y="499.579" width="1300" height="550" style="fill: none; stroke: none;" class="clothes"/>
  <g>
    <path id="path49" style="stroke-linejoin: bevel; stroke: rgb(194, 193, 193); stroke-width: 0.49542; fill: url(#gradient-0);" d="M 262.698 794.08 C 264.103 799.489 270.501 798.432 268.424 793.34 C 268.356 793.179 267.863 792.402 267.807 792.303 C 271.111 797.041 274.532 793.517 272.214 790.474 C 275.191 793.892 278.047 794.916 276.68 789.938 C 282.167 787.506 274.939 782.037 270.486 786.442 L 270.709 788.158 C 259.781 790.357 258.028 791.32 240.862 790.338 L 240.719 791.385 C 240.224 795.272 243.713 797.385 245.161 793.93 C 245.296 797.823 249.402 798.885 251 797.413 C 251.691 796.778 251.898 795.75 251.898 795.75 C 253.272 802.541 258.822 798.951 257.819 796.658 C 258.84 799.189 261.281 799.82 262.318 798.594 C 263.806 796.846 262.699 795.09 262.698 794.08 Z" class="fil5 str5" transform="matrix(0.995741, 0.092197, -0.092197, 0.995741, 74.147096, -20.565822)"/>
    <path id="path49-1" style="stroke-linejoin: bevel; fill-rule: evenodd; stroke: rgb(194, 193, 193); stroke-width: 0.45503; fill: url(#gradient-1);" d="M 223.208 790.999 C 222.964 796.488 217.466 795.416 218.322 790.247 C 218.351 790.085 218.627 789.295 218.657 789.196 C 216.72 794.004 213.275 790.427 214.682 787.339 C 212.792 790.808 210.593 791.847 210.878 786.795 C 205.902 784.325 210.381 780.747 214.836 785.218 L 213.957 786.301 C 222.898 787.228 229.282 786.398 240.716 787.201 L 241.016 788.264 C 242.091 792.209 239.552 794.353 237.757 790.847 C 238.312 794.799 235.079 795.875 233.5 794.381 C 232.816 793.736 232.469 792.694 232.469 792.694 C 232.488 799.587 227.261 795.942 227.703 793.616 C 227.287 796.183 225.366 796.824 224.295 795.58 C 222.759 793.805 223.379 792.024 223.207 790.999 Z" class="fil5 str5" transform="matrix(0.995741, 0.092197, -0.092197, 0.995741, 73.783432, -17.378489)"/>
    <path id="path55-1" style="stroke-linejoin: bevel; stroke: rgb(194, 193, 193); stroke-width: 0.51163; fill: url(#gradient-2);" d="M 238.818 659.171 C 240.4 657.903 244.49 659.462 247.97 659.376 C 251.572 659.286 254.542 657.608 254.64 659.701 L 257.236 660.452 C 258.869 659.709 257.712 658.383 254.976 657.183 C 255.932 657.501 256.845 658.021 257.697 658.846 C 258.552 656.894 259.003 655.409 256.079 654.989 C 254.305 654.734 249.909 656.968 246.654 656.903 C 242.543 656.871 238.378 654.913 236.132 655.75 C 235.371 656.035 236.757 656.518 235.948 657.045 C 235.271 657.493 233.578 657.849 233.83 658.449 C 234.09 659.07 234.935 658.578 235.917 658.672 C 236.524 658.05 237.557 657.508 238.651 657.096 C 236.687 657.898 235.581 658.744 235.553 659.745 L 238.818 659.171 Z" class="fil5 str5"/>
    <path id="path55" class="fil5 str5" style="stroke-linejoin: bevel; stroke: rgb(194, 193, 193); stroke-width: 0.51163; fill: url(#gradient-3);" d="M 239.045 656.601 C 242.263 659.182 254.674 660.187 254.868 656.071 L 257.464 655.32 C 259.096 656.063 257.939 657.389 255.203 658.589 C 256.16 658.271 257.073 657.75 257.923 656.927 C 259.261 659.977 256.624 662.428 247.585 662.608 C 242.08 662.652 237.926 661.445 234.731 659.363 C 234.054 658.914 233.689 658.654 233.942 658.054 C 234.202 657.432 235.162 657.194 236.145 657.1 C 236.752 657.721 237.785 658.263 238.878 658.676 C 236.915 657.874 235.809 657.027 235.78 656.027 L 239.045 656.601 Z"/>
  </g>
</svg>
